X:2418
L:1/8
Q:1/4=120
M:2/2
K:G
"^Very Fast" (e | g)aba gedd | eged BAGG | BGAG EGGG | Bd-d(B d3) (e | g)aba gedd | eged BAGG | 
 BGAG EEDD | EEAG- G3 :| D |: E2 ee d2 e2 | E2 e2 dBAA | E2 e2 Bdee | BAGG BAGD | E2 e2 d2 e2 | 
 E2 e2 dBAA | E2 e2 Bdee |1 bbaa g2 D2 :|2[M:3/2] bbaa g4- g3 ||

